!!!!SEGMENT: pl-gd--ms-4012--001_marenzio-luca--quis-revolvet-nobis-lapidem.krn
!!!cenid: 16xx:1746
!!!COM: Marenzio, Luca
!!!COM-rismID: pe30003955
!!!CDT: ~1553-1599/08/22
!!!CNT: Italian
!!!OTL: Quis revolvet nobis lapidem
!!!PDT:
!!!AGN: Sacred
!!!SMS-siglum: PL-GD
!!!SMS-shelfmark: Ms 4012
!!!SMS-shelfwork: 001 W
!!!SMS-variant:
!!!SMS-altvar:
!!!NIFC-rismSourceID: 305000112
!!!NIFC-rismChildID: 305000349
!!!NIFC-islandoraID: pl-gd:8969
!!!URL-pdf-islandora: https://repozytorium.nifc.pl/islandora/object/pl-gd%3A8969/datastream/PDF/view#page=157
!!!URL-scan: https://polish.musicsources.pl/pl/lokalizacje/galeria/rekopisy/5111 @EN{Scan on Polish Music Sources Website} @PL{Skany w portalu Dziedzictwo Muzyki Polskiej w otwartym dostępie}
!!!ONB-nifc: UWAGA: partia [bassus pro organo], 142v, skan 0157 (utwór mniej więcej w połowie strony)
!!!AIN: 1 organ
!!!key:
**kern
*Iorgan
*I"Organo
*I'org
*ICklav
*clefF5
*k[b-]
*g:
*M2/1
*met(C|)
=1-
1G
1.GG
=2-
2GG/
1D
=3-
2C\
1AA
2FF/
=4-
2.C\
4C\
1GG
=5-
2.E-X\
4E-\
2D\
2D\
=6-
2.GG/
4GG/
2GG/
2.C\
=7-
4BB-/
4AA/
4GG/
2.FF/
4GG/
=8-
2AA/
2AA/
1DD
=9-
1DD
2GG/
*clefC4
*k[b-]
2G/
=10-
1.c
2G/
=11-
2A/
2.D/
4G/
2C/
=12-
1D
2.G/
4D/
=13-
2G/
2A/
1D
=14-
2.B-\
4G/
2c\
2d\
=15-
2G/
*clefF5
*k[b-]
1GG
2CC/
!LO:LB:g=original
=16-
2FF/
2DD/
1GG
=17-
2DD/
1D
2GG/
=18-
0C
=19-
1D
2.GG/
4DD/
=20-
2GG/
2AA/
1DD
=21-
2.BB-/
4GG/
2C\
2D\
=22-
2GG/
*clefC4
*k[b-]
1G
2F/
=23-
1B-
2r;
1B-
=24-
2F/
2c\
2G/
=25-
1d
2A/
2.A/
=26-
4A/
2F#X/
2G/
2E-X/
=27-
1D
*clefF5
*k[b-]
1GG/
=28-
1GG/
1DD/
=29-
2D\
1GG/
2CC/
=30-
1FF
2CC/
2CC/
=31-
2CC/
2CC/
*custosGG
!LO:LB:g=original
1GG
=32-
1DD
1AA
=33-
1DD
1GG
=34-
0DD
=35-
2.GG/
4G\
*clefF4
*k[b-]
2c\
4G\
4GG/
=36-
2C/
4GG/
4G\
2c\
4G\
2B-\
=37-
4F\
4G\
4E-X\
1F
=38-
4B-\
*clefF5
*k[b-]
!LO:TX:a:t=f
2BB-/
4GG/
4C/
4GG/
2D\
=39-
1GG
1C
=40-
2AA/
2.D\
4BB-/
2GG/
=41-
2C\
2AA/
2.FF/
4DD/
=42-
2AA/
2AA/
2DD/
2.D\
=43-
4BB-/
2AA/
1GG
=44-
!LO:TX:b:t=P:problem:# below
!LO:N:acc=#
4BBn/
!LO:TX:b:t=c
4C/
2D/
2GG/
2.GG/
=45-
4C\
!!LO:LB:g=original
0GG/
=46-
2C\
2.C\
4AA/
=47-
2GG/
2FF/
2.BB-y/
4D\
=48-
2AA/
2DD/
2.DD/
4GG/
=49-
2DD/
1GG/
2ryy
=50-
*clefC4
*k[b-]
*M3/2
1G
1G
1c
=51-
0B-
1G
=52-
*clefF5
*k[b-]
1AA
1AA
1D
=53-
0C
1GG
=54-
0AA
1D
=55-
1GG
1GG
1CC
=56-
0FF
1DD
=57-
*M2/1
*met(C|)
2AA/
1BB-
2BB-/
=58-
1FF
1BB-
=59-
*M3/2
1C
1C
1GG
=60-
1GG
1C
1D
=61-
0BB-
1GG
=62-
1AA
0EE
!LO:LB:g=original
=63-
1GG
1GG
1C
=64-
1C
1GG
1D
=65-
0AA
1FF
=66-
1DD
0AA
=67-
*M2/1
*met(C|)
2DD/
2.D\
4BB-/
2AA/
=68-
1GG
!!LO:TX:b:t=P:problem:# above
!LO:N:acc=#
4BBn/
4C\
2D\
=69-
2GG/
2.GG/
4C\
2D\
=70-
0GG
=71-
2C\
2.C\
4AA/
2GG/
=72-
2FF/
2.BB-y/
4D\
2AA/
=73-
2DD/
2.DD/
4GG/
2DD/
=74-
2GG/
1CC
2GG/
=75-
0DD
=76-
2GG/
1GG
2GG/
=77-
0CC
=78-
0GG;;
==
*-
!!!ENC: Andrzej Gręziak
!!!END: 2022-06-07
!!!ENC: Marta Lawrence
!!!END: 2023-07-11
!!!YEC: Copyright 2022 Narodowy Instytut Fryderyka Chopina (https://polishscores.org)
!!!YEM: License CC-BY-4.0 (https://creativecommons.org/licenses/by/4.0)
